_includes/icons/ios-user-groups.svg

<svg fill="#666" height="50" viewBox="0 0 50 50" width="50" xmlns="http://www.w3.org/2000/svg"><path d="m17 2c-3.300781 0-6 2.699219-6 6 0 1.984375.976563 3.75 2.46875 4.84375-.800781.402344-1.53125.921875-2.15625 1.5625-.726562-.257812-1.5-.40625-2.3125-.40625-3.855469 0-7 3.144531-7 7 0 2.449219 1.269531 4.625 3.1875 5.875-3.054687 1.445313-5.1875 4.539063-5.1875 8.125v4.5c-.00390625.320313.148438.621094.40625.8125 0 0 .707031.5 2.0625.90625s3.449219.78125 6.53125.78125 5.175781-.375 6.53125-.78125c.175781-.050781.316406-.101562.46875-.15625v4.4375c-.003906.320313.148438.621094.40625.8125 0 0 .707031.5 2.0625.90625s3.449219.78125 6.53125.78125 5.175781-.375 6.53125-.78125 2.0625-.90625 2.0625-.90625c.257813-.191406.410156-.492187.40625-.8125v-4.4375c.152344.054688.292969.105469.46875.15625 1.355469.40625 3.449219.78125 6.53125.78125s5.175781-.375 6.53125-.78125 2.0625-.90625 2.0625-.90625c.257813-.191406.410156-.492187.40625-.8125v-4.5c0-3.585937-2.132812-6.679687-5.1875-8.125 1.917969-1.25 3.1875-3.425781 3.1875-5.875 0-3.855469-3.144531-7-7-7-.871094 0-1.699219.175781-2.46875.46875-.628906-.660156-1.371094-1.210937-2.1875-1.625 1.492188-1.09375 2.46875-2.859375 2.46875-4.84375 0-3.300781-2.699219-6-6-6s-6 2.699219-6 6c0 1.984375.976563 3.75 2.46875 4.84375-2.296875 1.132813-3.976562 3.3125-4.375 5.9375-.398437-2.628906-2.074219-4.808594-4.375-5.9375 1.492188-1.09375 2.46875-2.859375 2.46875-4.84375 0-3.300781-2.699219-6-6-6zm0 2c2.222656 0 4 1.777344 4 4s-1.777344 4-4 4-4-1.777344-4-4 1.777344-4 4-4zm15.8125 0c2.222656 0 4 1.777344 4 4s-1.777344 4-4 4-4-1.777344-4-4 1.777344-4 4-4zm-15.8125 10c3.371094 0 6 2.628906 6 6v.3125c-2.875.871094-5 3.535156-5 6.6875 0 2.449219 1.269531 4.625 3.1875 5.875-1.253906.59375-2.328125 1.464844-3.1875 2.53125v-.40625c0-3.585937-2.132812-6.679687-5.1875-8.125 1.917969-1.25 3.1875-3.425781 3.1875-5.875 0-2.28125-1.113281-4.3125-2.8125-5.59375 1.039063-.886719 2.328125-1.40625 3.8125-1.40625zm15.8125 0c1.527344 0 2.855469.535156 3.90625 1.46875-1.648437 1.28125-2.71875 3.292969-2.71875 5.53125 0 2.449219 1.269531 4.625 3.1875 5.875-3.054687 1.445313-5.1875 4.539063-5.1875 8.125v.40625c-.859375-1.066406-1.933594-1.9375-3.1875-2.53125 1.917969-1.25 3.1875-3.425781 3.1875-5.875 0-3.222656-2.210937-5.945312-5.1875-6.75v-.25c0-3.371094 2.628906-6 6-6zm-23.8125 2c.777344 0 1.5.1875 2.15625.5 1.679688.804688 2.84375 2.503906 2.84375 4.5 0 2.773438-2.226562 5-5 5-2.773437 0-5-2.226562-5-5 0-2.773437 2.226563-5 5-5zm32 0c2.773438 0 5 2.226563 5 5 0 2.773438-2.226562 5-5 5-2.773437 0-5-2.226562-5-5 0-1.847656.988281-3.445312 2.46875-4.3125.007813-.003906.023438.003906.03125 0 .148438-.03125.285156-.09375.40625-.1875.035156-.015625.058594-.046875.09375-.0625.019531-.007812.042969-.019531.0625-.03125.597656-.253906 1.246094-.40625 1.9375-.40625zm-16 6c2.773438 0 5 2.226563 5 5 0 2.773438-2.226562 5-5 5-2.773437 0-5-2.226562-5-5 0-2.773437 2.226563-5 5-5zm-16 6c3.855469 0 7 3.144531 7 7v3.84375c-.148437.089844-.207031.191406-1.03125.4375-1.144531.34375-3.050781.71875-5.96875.71875s-4.824219-.375-5.96875-.71875c-.824219-.246094-.882812-.347656-1.03125-.4375v-3.84375c0-3.855469 3.144531-7 7-7zm32 0c3.855469 0 7 3.144531 7 7v3.84375c-.148437.089844-.207031.191406-1.03125.4375-1.144531.34375-3.050781.71875-5.96875.71875s-4.824219-.375-5.96875-.71875c-.824219-.246094-.882812-.347656-1.03125-.4375v-3.84375c0-3.855469 3.144531-7 7-7zm-16 6c3.855469 0 7 3.144531 7 7v3.84375c-.148437.089844-.207031.191406-1.03125.4375-1.144531.34375-3.050781.71875-5.96875.71875s-4.824219-.375-5.96875-.71875c-.824219-.246094-.882812-.347656-1.03125-.4375v-3.84375c0-3.855469 3.144531-7 7-7z"/></svg>

<svg xmlns="http://www.w3.org/2000/svg" viewBox="0 0 50 50" width="50" height="50" fill="#666"><path d="M 17 2 C 13.699219 2 11 4.699219 11 8 C 11 9.984375 11.976563 11.75 13.46875 12.84375 C 12.667969 13.246094 11.9375 13.765625 11.3125 14.40625 C 10.585938 14.148438 9.8125 14 9 14 C 5.144531 14 2 17.144531 2 21 C 2 23.449219 3.269531 25.625 5.1875 26.875 C 2.132813 28.320313 0 31.414063 0 35 L 0 39.5 C -0.00390625 39.820313 0.148438 40.121094 0.40625 40.3125 C 0.40625 40.3125 1.113281 40.8125 2.46875 41.21875 C 3.824219 41.625 5.917969 42 9 42 C 12.082031 42 14.175781 41.625 15.53125 41.21875 C 15.707031 41.167969 15.847656 41.117188 16 41.0625 L 16 45.5 C 15.996094 45.820313 16.148438 46.121094 16.40625 46.3125 C 16.40625 46.3125 17.113281 46.8125 18.46875 47.21875 C 19.824219 47.625 21.917969 48 25 48 C 28.082031 48 30.175781 47.625 31.53125 47.21875 C 32.886719 46.8125 33.59375 46.3125 33.59375 46.3125 C 33.851563 46.121094 34.003906 45.820313 34 45.5 L 34 41.0625 C 34.152344 41.117188 34.292969 41.167969 34.46875 41.21875 C 35.824219 41.625 37.917969 42 41 42 C 44.082031 42 46.175781 41.625 47.53125 41.21875 C 48.886719 40.8125 49.59375 40.3125 49.59375 40.3125 C 49.851563 40.121094 50.003906 39.820313 50 39.5 L 50 35 C 50 31.414063 47.867188 28.320313 44.8125 26.875 C 46.730469 25.625 48 23.449219 48 21 C 48 17.144531 44.855469 14 41 14 C 40.128906 14 39.300781 14.175781 38.53125 14.46875 C 37.902344 13.808594 37.160156 13.257813 36.34375 12.84375 C 37.835938 11.75 38.8125 9.984375 38.8125 8 C 38.8125 4.699219 36.113281 2 32.8125 2 C 29.511719 2 26.8125 4.699219 26.8125 8 C 26.8125 9.984375 27.789063 11.75 29.28125 12.84375 C 26.984375 13.976563 25.304688 16.15625 24.90625 18.78125 C 24.507813 16.152344 22.832031 13.972656 20.53125 12.84375 C 22.023438 11.75 23 9.984375 23 8 C 23 4.699219 20.300781 2 17 2 Z M 17 4 C 19.222656 4 21 5.777344 21 8 C 21 10.222656 19.222656 12 17 12 C 14.777344 12 13 10.222656 13 8 C 13 5.777344 14.777344 4 17 4 Z M 32.8125 4 C 35.035156 4 36.8125 5.777344 36.8125 8 C 36.8125 10.222656 35.035156 12 32.8125 12 C 30.589844 12 28.8125 10.222656 28.8125 8 C 28.8125 5.777344 30.589844 4 32.8125 4 Z M 17 14 C 20.371094 14 23 16.628906 23 20 L 23 20.3125 C 20.125 21.183594 18 23.847656 18 27 C 18 29.449219 19.269531 31.625 21.1875 32.875 C 19.933594 33.46875 18.859375 34.339844 18 35.40625 L 18 35 C 18 31.414063 15.867188 28.320313 12.8125 26.875 C 14.730469 25.625 16 23.449219 16 21 C 16 18.71875 14.886719 16.6875 13.1875 15.40625 C 14.226563 14.519531 15.515625 14 17 14 Z M 32.8125 14 C 34.339844 14 35.667969 14.535156 36.71875 15.46875 C 35.070313 16.75 34 18.761719 34 21 C 34 23.449219 35.269531 25.625 37.1875 26.875 C 34.132813 28.320313 32 31.414063 32 35 L 32 35.40625 C 31.140625 34.339844 30.066406 33.46875 28.8125 32.875 C 30.730469 31.625 32 29.449219 32 27 C 32 23.777344 29.789063 21.054688 26.8125 20.25 L 26.8125 20 C 26.8125 16.628906 29.441406 14 32.8125 14 Z M 9 16 C 9.777344 16 10.5 16.1875 11.15625 16.5 C 12.835938 17.304688 14 19.003906 14 21 C 14 23.773438 11.773438 26 9 26 C 6.226563 26 4 23.773438 4 21 C 4 18.226563 6.226563 16 9 16 Z M 41 16 C 43.773438 16 46 18.226563 46 21 C 46 23.773438 43.773438 26 41 26 C 38.226563 26 36 23.773438 36 21 C 36 19.152344 36.988281 17.554688 38.46875 16.6875 C 38.476563 16.683594 38.492188 16.691406 38.5 16.6875 C 38.648438 16.65625 38.785156 16.59375 38.90625 16.5 C 38.941406 16.484375 38.964844 16.453125 39 16.4375 C 39.019531 16.429688 39.042969 16.417969 39.0625 16.40625 C 39.660156 16.152344 40.308594 16 41 16 Z M 25 22 C 27.773438 22 30 24.226563 30 27 C 30 29.773438 27.773438 32 25 32 C 22.226563 32 20 29.773438 20 27 C 20 24.226563 22.226563 22 25 22 Z M 9 28 C 12.855469 28 16 31.144531 16 35 L 16 38.84375 C 15.851563 38.933594 15.792969 39.035156 14.96875 39.28125 C 13.824219 39.625 11.917969 40 9 40 C 6.082031 40 4.175781 39.625 3.03125 39.28125 C 2.207031 39.035156 2.148438 38.933594 2 38.84375 L 2 35 C 2 31.144531 5.144531 28 9 28 Z M 41 28 C 44.855469 28 48 31.144531 48 35 L 48 38.84375 C 47.851563 38.933594 47.792969 39.035156 46.96875 39.28125 C 45.824219 39.625 43.917969 40 41 40 C 38.082031 40 36.175781 39.625 35.03125 39.28125 C 34.207031 39.035156 34.148438 38.933594 34 38.84375 L 34 35 C 34 31.144531 37.144531 28 41 28 Z M 25 34 C 28.855469 34 32 37.144531 32 41 L 32 44.84375 C 31.851563 44.933594 31.792969 45.035156 30.96875 45.28125 C 29.824219 45.625 27.917969 46 25 46 C 22.082031 46 20.175781 45.625 19.03125 45.28125 C 18.207031 45.035156 18.148438 44.933594 18 44.84375 L 18 41 C 18 37.144531 21.144531 34 25 34 Z"/></svg>
